Adwaita++-Light/panel/22/clementine-panel.svg

<svg height="22" width="22" xmlns="http://www.w3.org/2000/svg">
  <g fill="#444">
    <path d="m6.8497137 3.0005456c-2.9225683.1292881-6.6104423 7.0171804-.6975692 12.8787854 5.9979585 5.945182 13.0486725 2.099666 12.8434795-.888799a8.5037006 8.5012098 0 0 1 -5.490671 2.010052 8.5037006 8.5012098 0 0 1 -8.5036999-8.501209 8.5037006 8.5012098 0 0 1 2.0243184-5.4910158c-.058336-.00297-.1168109-.010426-.1758578-.00781z"/>
    <path d="m7.5805005 3.1294702c-1.2879993 1.4196552-2.0790297 3.298512-2.0790297 5.3699048 0 4.42483 3.5773564 8.001138 8.0034822 8.001138 2.06802 0 3.944534-.787391 5.363663-2.070606-.122035-.295391-.324469-.574469-.625273-.824337-1.202523-1.000442-3.422223-1.717722-5.742733-4.0181495-2.448465-2.4274455-3.1460906-4.7283355-4.1717369-5.9149043-.2261131-.2615625-.4796498-.4347791-.7483726-.543046z" opacity=".3"/>
  </g>
</svg>

<svg xmlns="http://www.w3.org/2000/svg" width="22" height="22" version="1.1">
 <defs>
  <style id="current-color-scheme" type="text/css">
   .ColorScheme-Text { color:#444444; } .ColorScheme-Highlight { color:#4285f4; }
  </style>
 </defs>
 <path d="M 6.8497137,3.0005456 C 3.9271454,3.1298337 0.2392714,10.017726 6.1521445,15.879331 12.150103,21.824513 19.200817,17.978997 18.995624,14.990532 A 8.5037006,8.5012098 0 0 1 13.504953,17.000584 8.5037006,8.5012098 0 0 1 5.0012531,8.499375 8.5037006,8.5012098 0 0 1 7.0255715,3.0083592 c -0.058336,-0.00297 -0.1168109,-0.010426 -0.1758578,-0.00781 z" style="fill:currentColor" class="ColorScheme-Text"/>
 <path d="M 7.5805005,3.1294702 C 6.2925012,4.5491254 5.5014708,6.4279822 5.5014708,8.499375 c 0,4.42483 3.5773564,8.001138 8.0034822,8.001138 2.06802,0 3.944534,-0.787391 5.363663,-2.070606 C 18.746581,14.134516 18.544147,13.855438 18.243343,13.60557 17.04082,12.605128 14.82112,11.887848 12.50061,9.5874205 10.052145,7.159975 9.3545194,4.859085 8.3288731,3.6725162 8.10276,3.4109537 7.8492233,3.2377371 7.5805005,3.1294702 Z" style="fill:currentColor;opacity:0.3" class="ColorScheme-Text"/>
</svg>
